assets/misc-grey/MiscGrey10.svg

<svg width="45" height="26" viewBox="0 0 45 26" fill="none" xmlns="http://www.w3.org/2000/svg">
<path fill-rule="evenodd" clip-rule="evenodd" d="M41.354 16.6C41.354 16.87 41.125 17.1 40.854 17.1H39.104V8.34998H40.854C41.125 8.34998 41.354 8.57998 41.354 8.84998V16.6ZM36.104 21.85C36.104 22.12 35.875 22.35 35.604 22.35H4.104C3.833 22.35 3.604 22.12 3.604 21.85V4.34998C3.604 4.07998 3.833 3.84998 4.104 3.84998H35.604C35.875 3.84998 36.104 4.07998 36.104 4.34998V21.85ZM40.854 5.34998H39.104V4.34998C39.104 2.41998 37.533 0.849976 35.604 0.849976H4.104C2.174 0.849976 0.604004 2.41998 0.604004 4.34998V21.85C0.604004 23.78 2.174 25.35 4.104 25.35H35.604C37.533 25.35 39.104 23.78 39.104 21.85V20.1H40.854C42.783 20.1 44.354 18.53 44.354 16.6V8.84998C44.354 6.91998 42.783 5.34998 40.854 5.34998Z" fill="#1A1919"/>
</svg>

<svg xmlns="http://www.w3.org/2000/svg" viewBox="0 0 45 26"><path fill-rule="evenodd" d="M41.354 16.6c0 .27-.229.5-.5.5h-1.75V8.35h1.75c.271 0 .5.23.5.5v7.75zm-5.25 5.25c0 .27-.229.5-.5.5h-31.5c-.271 0-.5-.23-.5-.5V4.35c0-.27.229-.5.5-.5h31.5c.271 0 .5.23.5.5v17.5zm4.75-16.5h-1.75v-1c0-1.93-1.571-3.5-3.5-3.5h-31.5c-1.93 0-3.5 1.57-3.5 3.5v17.5c0 1.93 1.57 3.5 3.5 3.5h31.5c1.929 0 3.5-1.57 3.5-3.5V20.1h1.75c1.929 0 3.5-1.57 3.5-3.5V8.85c0-1.93-1.571-3.5-3.5-3.5z" clip-rule="evenodd"/></svg>
